X:17552
T:Tom Busby's
M:6/8
L:1/8
S:Tara Diamond
R:Jig
K:EDor
Bee BBA|Bee BAF|Bee Bee|BAF AFD|
Bee BBA|Bee def|gfe dBG|ABG AFD:|
~A3 ded|BAB dBG|~A3 ded|dAF AFD|
~A3 ded|BAB def|gfe dBG|ABG AFD:|
